X: 37355
T: Slängpols Från Torp
R: mazurka
M: 3/4
K: Gmajor
|:d>c B>G d>B|g>e f<a A2|a>g f>d a>f|c’>a b>d’ g2|
d>c B>G d>B|g>e f<a A2|a>g f>d a>f|e<f g2 G2:|
|:d’>c’ b>g d>G|B>d c<e A2|A>B c>A F>d|^c>d G<B D2|
d’>c’ b>g d>G|B>d c<e A2|A>B c>A F>D|E<F G2 g2:|

